X: 5407
T: Buffett Double, The
R: reel
M: 4/4
K: Adorian
|:eAAG Aedc|BGGA BGBd|eAAG Aedc|BGBG A2Bd|
eAAG Aedc|BGGA BGBd|e2ed efge|1 dBGB A2Bd:|2 dBGB A4||
|:e2ed efge|dBGA BGBd|e2ed efgd|g2 b2 a4|
f2ed efge|dBGA BGBd|e2ed efge|1 dBGB A4:|2 dBGB A2Bd||

